X:8
%%pagewidth 660pt
T:The Lady Frances Nevill's Delight - Part 2
M:C
L:1/8
K:Bb
%%score 1 2
V:1 clef-treble
V:2 clef-bass octave=-1
[V:1]B,6 Bc|[GBd]2 [^FAd]2 [Gd]2 cd|[Ge]dcB [Fc]2[DF]2|[EG]ABc [DBd]2[EAc]2|
w:name, Tho' with shaft and bow, He de-parted* long a-go, Un-per-ish-ing shall be his
[V:2]B,6z2|[G,G]2 [DA]2 [GB]2 z2|[EB]4 [A,F]2 B,2|E2 DC F2 F,2|
[V:1][DB]6||AB|[FAc]2 c2 c2 [FBd]2|[FAc][GB][FA][GB] [Ac]2 AB|[Fc]dc[GB] [FA]2 [B,=EG]2|
w:fame. Like a no-ble soul He doat-ed on the bowl, And a gob-let of the best love
[V:2]B,6||z2|F6B,2|F,6 FG|A3 B c2C2|
[V:1][A,F]6 [EG]A|[DB]2 AB D2 EF|G2 G2 C2 DE|
w:we; So, though bold Ro-bin's gone, Still his heart lives on, And we
[V:2]FGF_E D2 C2|B,2z2 [GB]2z2|[EB]2z2 [FA]2 B,C|
[V:1][B,F]GF[CE] [B,D]2 [A,C]2|B,6 "^Chorus"[EG]A|[DB]2 AB [B,D]2 EF|
w:drink to him with three times three. So, though bold Ro-bin's gone, Still his
[V:2]D3E F2F,2|G,GFE D2"^f"[C,C]2|[B,,B,]2z2 [G,G]2z2|
[V:1][B,EG]2G2 [A,C]2DE|[B,F]GF[CE] [B,D]2[A,C]2|B,6||
w:heart lives on, And we drink to him with three times three.
[V:2][E,E]2z2 [F,F]2[B,,B,][C,C]|[D,D]3[E,E] [F,F]2[F,E]2|[B,D]6||

